assets/Orangutan/Flat/orangutan_flat.svg

<svg width="32" height="32" viewBox="0 0 32 32" fill="none" xmlns="http://www.w3.org/2000/svg">
<path d="M21.53 12.46H10.58V27.13H21.53V12.46Z" fill="#1C1C1C"/>
<path d="M4.78002 30H10.43C11.56 30 12.33 28.87 11.91 27.82L8.78002 20H4.57002C2.75002 20 1.51002 21.83 2.19002 23.52L4.78002 30Z" fill="#FF6723"/>
<path d="M27.22 30H21.83C20.58 30 19.73 28.74 20.19 27.58L23.22 20H27.43C29.24 20 30.48 21.84 29.81 23.52L27.22 30Z" fill="#FF6723"/>
<path d="M14.17 15.6599H17.83C18.75 15.6599 19.5 16.3999 19.5 17.3299C19.5 18.2499 18.75 18.9999 17.83 18.9999H14.17C13.25 18.9999 12.5 18.2499 12.5 17.3299C12.5 16.4099 13.25 15.6599 14.17 15.6599Z" fill="#636363"/>
<path d="M7.15 25.98H3.01L3 25.98C2.44465 25.9853 2 26.4333 2 26.99C2 27.5466 2.44465 27.9946 3 27.9999V28.92C3 29.52 3.48 30 4.08 30H7.15C8.26 30 9.16 29.1 9.16 27.99C9.16 26.88 8.26 25.98 7.15 25.98Z" fill="#636363"/>
<path d="M29 25.98H24.85C23.74 25.98 22.84 26.88 22.84 27.99C22.84 29.1 23.74 30 24.85 30H27.92C28.52 30 29 29.52 29 28.92V27.9999C29.5554 27.9946 30 27.5467 30 26.99C30 26.4333 29.5554 25.9853 29 25.98Z" fill="#636363"/>
<path d="M9.98002 30H10.81C11.1113 30 11.3855 29.8895 11.5946 29.7067C11.6416 29.8753 11.7969 30 11.98 30H12.81C13.1113 30 13.3855 29.8895 13.5946 29.7067C13.6416 29.8753 13.7969 30 13.98 30H14.81C15.47 30 16 29.47 16 28.81C16 29.47 16.54 30 17.2 30H18.03C18.212 30 18.3666 29.8768 18.4146 29.7097C18.6255 29.8908 18.9004 30 19.2 30H20.03C20.212 30 20.3666 29.8768 20.4146 29.7097C20.6255 29.8908 20.9004 30 21.2 30H22.03C22.25 30 22.43 29.82 22.43 29.6V26.99H9.58002V29.6C9.58002 29.82 9.76002 30 9.98002 30Z" fill="#636363"/>
<path d="M16.005 25.8614C15.9719 25.24 15.7752 24.6478 15.43 24.13L12.37 19.54C12.14 19.2 12.06 18.77 12.15 18.37L14.71 7H9.82002C8.12002 7 6.60002 8.05 6.00002 9.63L2.95002 17.12C2.77002 17.54 3.08002 18 3.53002 18C3.89002 18 4.23002 17.9 4.53002 17.72C4.63002 17.66 4.74002 17.77 4.68002 17.87C4.27002 18.56 4.30002 19.43 4.76002 20.08L8.61002 25.58C9.01002 26.15 9.39002 26.75 9.69002 27.38C9.86002 27.75 10.23 28 10.65 28C11.06 28 11.42 27.77 11.6 27.43C11.65 27.33 11.79 27.33 11.84 27.43C12.02 27.77 12.38 28 12.79 28C13.2 28 13.56 27.77 13.74 27.43C13.79 27.33 13.93 27.33 13.98 27.43C14.16 27.77 14.52 28 14.93 28C15.5 28 15.9699 27.5501 16 26.9902C16.0301 27.5501 16.5001 28 17.07 28C17.49 28 17.84 27.77 18.02 27.43C18.07 27.33 18.21 27.33 18.26 27.43C18.44 27.77 18.8 28 19.21 28C19.62 28 19.98 27.77 20.16 27.43C20.21 27.33 20.35 27.33 20.4 27.43C20.58 27.77 20.94 28 21.35 28C21.78 28 22.15 27.75 22.31 27.37C22.61 26.74 22.99 26.14 23.39 25.57L27.24 20.07C27.7 19.42 27.73 18.55 27.32 17.86C27.26 17.76 27.37 17.65 27.47 17.71C27.77 17.89 28.11 17.99 28.47 17.99C28.92 17.99 29.23 17.54 29.06 17.12L26.01 9.63C25.41 8.05 23.89 7 22.19 7H17.3L19.86 18.37C19.95 18.77 19.87 19.2 19.64 19.54L16.58 24.13C16.2348 24.6478 16.0381 25.24 16.005 25.8614Z" fill="#FF822D"/>
<path d="M17.05 4H18.81C21.12 4 23 5.88 23 8.19C23 10.2581 21.4932 11.9815 19.52 12.3198V16.13C19.52 16.78 18.99 17.3 18.35 17.3C17.7 17.3 17.18 16.77 17.18 16.13C17.18 16.78 16.66 17.3 16.01 17.3C15.36 17.3 14.84 16.77 14.84 16.13C14.84 16.78 14.31 17.3 13.67 17.3C13.02 17.3 12.5 16.77 12.5 16.13H12.52V12.3265C10.5272 12.0047 9 10.272 9 8.19C9 5.88 10.88 4 13.19 4H14.95L14.81 3.86C14.61 3.67 14.61 3.35 14.81 3.15C15 2.95 15.32 2.95 15.52 3.15L16 3.63L16.48 3.15C16.67 2.95 16.99 2.95 17.19 3.15C17.39 3.34 17.39 3.66 17.19 3.86L17.05 4Z" fill="#FF6723"/>
<path d="M12.8277 11.0413C11.7699 10.723 11 9.74187 11 8.58C10.99 7.15 12.14 6 13.56 6H18.42C19.85 6 21 7.15 21 8.57C21 9.73199 20.2299 10.7199 19.172 11.0405C19.3762 11.4844 19.49 11.9787 19.49 12.5C19.49 14.43 17.93 15.99 16 15.99C14.07 15.99 12.51 14.43 12.51 12.5C12.51 11.979 12.6237 11.485 12.8277 11.0413Z" fill="#636363"/>
<path d="M17.5 9.63C17.22 9.63 17 9.41 17 9.13V8.5C17 8.22 17.22 8 17.5 8C17.78 8 18 8.22 18 8.5V9.13C18 9.4 17.78 9.63 17.5 9.63Z" fill="#212121"/>
<path d="M15 11.5C15 11.7761 14.7761 12 14.5 12C14.2239 12 14 11.7761 14 11.5C14 11.2239 14.2239 11 14.5 11C14.7761 11 15 11.2239 15 11.5Z" fill="#212121"/>
<path d="M18 11.5C18 11.7761 17.7761 12 17.5 12C17.2239 12 17 11.7761 17 11.5C17 11.2239 17.2239 11 17.5 11C17.7761 11 18 11.2239 18 11.5Z" fill="#212121"/>
<path d="M14 9.12C14 9.4 14.22 9.62 14.5 9.62C14.78 9.62 15 9.4 15 9.13V8.5C15 8.22 14.78 8 14.5 8C14.22 8 14 8.22 14 8.5V9.12Z" fill="#212121"/>
</svg>

<svg xmlns="http://www.w3.org/2000/svg" width="32" height="32" fill="none"><path fill="#1C1C1C" d="M21.53 12.46H10.58v14.67h10.95V12.46Z"/><path fill="#FF6723" d="M4.78 30h5.65c1.13 0 1.9-1.13 1.48-2.18L8.78 20H4.57a2.56 2.56 0 0 0-2.38 3.52L4.78 30ZM27.22 30h-5.39c-1.25 0-2.1-1.26-1.64-2.42L23.22 20h4.21c1.81 0 3.05 1.84 2.38 3.52L27.22 30Z"/><path fill="#636363" d="M14.17 15.66h3.66c.92 0 1.67.74 1.67 1.67 0 .92-.75 1.67-1.67 1.67h-3.66c-.92 0-1.67-.75-1.67-1.67 0-.92.75-1.67 1.67-1.67ZM7.15 25.98H3c-.555.005-1 .453-1 1.01 0 .557.445 1.005 1 1.01v.92c0 .6.48 1.08 1.08 1.08h3.07a2.01 2.01 0 0 0 0-4.02ZM29 25.98h-4.15a2.01 2.01 0 0 0 0 4.02h3.07c.6 0 1.08-.48 1.08-1.08V28c.555-.005 1-.453 1-1.01 0-.557-.445-1.005-1-1.01ZM9.98 30h.83c.301 0 .575-.11.785-.293a.402.402 0 0 0 .385.293h.83c.301 0 .575-.11.785-.293a.402.402 0 0 0 .385.293h.83c.66 0 1.19-.53 1.19-1.19 0 .66.54 1.19 1.2 1.19h.83a.402.402 0 0 0 .385-.29c.21.18.485.29.785.29h.83a.402.402 0 0 0 .385-.29c.21.18.485.29.785.29h.83c.22 0 .4-.18.4-.4v-2.61H9.58v2.61c0 .22.18.4.4.4Z"/><path fill="#FF822D" d="M16.005 25.861a3.435 3.435 0 0 0-.575-1.731l-3.06-4.59c-.23-.34-.31-.77-.22-1.17L14.71 7H9.82C8.12 7 6.6 8.05 6 9.63l-3.05 7.49c-.18.42.13.88.58.88.36 0 .7-.1 1-.28.1-.06.21.05.15.15-.41.69-.38 1.56.08 2.21l3.85 5.5c.4.57.78 1.17 1.08 1.8.17.37.54.62.96.62.41 0 .77-.23.95-.57.05-.1.19-.1.24 0a1.075 1.075 0 0 0 1.9 0c.05-.1.19-.1.24 0a1.075 1.075 0 0 0 2.02-.44 1.074 1.074 0 0 0 2.02.44c.05-.1.19-.1.24 0a1.075 1.075 0 0 0 1.9 0c.05-.1.19-.1.24 0 .18.34.54.57.95.57.43 0 .8-.25.96-.63.3-.63.68-1.23 1.08-1.8l3.85-5.5c.46-.65.49-1.52.08-2.21-.06-.1.05-.21.15-.15.3.18.64.28 1 .28.45 0 .76-.45.59-.87l-3.05-7.49A4.085 4.085 0 0 0 22.19 7H17.3l2.56 11.37c.09.4.01.83-.22 1.17l-3.06 4.59a3.435 3.435 0 0 0-.575 1.731Z"/><path fill="#FF6723" d="M17.05 4h1.76C21.12 4 23 5.88 23 8.19a4.197 4.197 0 0 1-3.48 4.13v3.81c0 .65-.53 1.17-1.17 1.17-.65 0-1.17-.53-1.17-1.17 0 .65-.52 1.17-1.17 1.17-.65 0-1.17-.53-1.17-1.17 0 .65-.53 1.17-1.17 1.17-.65 0-1.17-.53-1.17-1.17h.02v-3.803A4.197 4.197 0 0 1 9 8.19C9 5.88 10.88 4 13.19 4h1.76l-.14-.14c-.2-.19-.2-.51 0-.71.19-.2.51-.2.71 0l.48.48.48-.48c.19-.2.51-.2.71 0 .2.19.2.51 0 .71l-.14.14Z"/><path fill="#636363" d="M12.828 11.041A2.57 2.57 0 0 1 11 8.58 2.557 2.557 0 0 1 13.56 6h4.86C19.85 6 21 7.15 21 8.57c0 1.162-.77 2.15-1.828 2.47.204.444.318.939.318 1.46 0 1.93-1.56 3.49-3.49 3.49-1.93 0-3.49-1.56-3.49-3.49 0-.521.114-1.015.318-1.459Z"/><path fill="#212121" d="M17.5 9.63c-.28 0-.5-.22-.5-.5V8.5c0-.28.22-.5.5-.5s.5.22.5.5v.63c0 .27-.22.5-.5.5ZM15 11.5a.5.5 0 1 1-1 0 .5.5 0 0 1 1 0ZM18 11.5a.5.5 0 1 1-1 0 .5.5 0 0 1 1 0ZM14 9.12c0 .28.22.5.5.5s.5-.22.5-.49V8.5c0-.28-.22-.5-.5-.5s-.5.22-.5.5v.62Z"/></svg>
